X: 19034
T: Inver Bank
R: jig
M: 6/8
K: Bminor
|:fff edc|BBB cAG|FFF cAG|FFF cde|
fff edc|BBB cAG|FFF cAG|1 FGA B/c/de:|2 FGA BFD||
|:FFF BFD|FGF BFG|FFF cFG|FcF dFc|
FFF BFD|FGF BFG|FFF cAG|1 FGA BFD:|2 FGA B/c/de||

